-----BEGIN PGP PUBLIC KEY BLOCK-----
Comment: Hostname: 
Version: Hockeypuck 2.2

xsFNBFsvDSkBEADtyFKGhQ/sh9KmVAzivJfMGbasytWkZNdIrwCoxSTEijl2QLyi
E8b5xEOK2+9b3OXF+Nbm+tdfVCaKfoDhXdglxvENSdXA0mKxt4RhKxXAkWHrLfeA
A4RbUj0ndfpJWpoRoEPZTP2a8UXOctUVQP+JzC+D028nawzpSVrXN7UYkszJ5j06
oR6+ZMjpEMbPRnOWRuaJONPvBuTHGDSsD3UPJlWyeUv7+GmcVJzjc8uq1HeX/5Ap
NTrESldIDPgcxfTWhscj1+s8gvW5SqcNQnWSIUtI+Bi2sW9ibj9XlkFJMU7QFV+S
1uF9D8lynZCSDIjnsqSuX3TMgr2CPk7+0eLNFAVrrTUbGwcoyge3d8osJD5PS3z6
COwDlzAXRJECScRo1ynxCxJTLVf6JoGQEFzVc5HSlM8Lx1zm/Al+AYdhdToCQNDF
vLLuHkMqh3OLG3yxS142BUHDrd0KaiY+sxoUQjVjo7PHpLZRJKGZCxSS6vPr9I+o
OTDO2h7rWdTtodmkSz9+NnUD1cGYWwL8j4Cpi4yozg+8Gbtywnm/q0TPMYhyiBbn
hU+sowfmo1RPn2aQnxSS55L7cMTNzP95cU4FQDNzYhget9X5UJJPWdSRcknykMcQ
oAo0IfswMDC7LWf8uObZo/0DQeGBVBx2y/+Ir9dt5MhcrmO/U+fCF+O2xwARAQAB
zRhUZWFib3QgPHRlYWJvdEBnaXRlYS5pbz7CwZQEEwEIAD4CGwMFCwkIBwIGFQoJ
CAsCBBYCAwECHgECF4AWIQR8nmgVJZRoiGLWKvYtmugG7BWS4gUCaj8G9QUJEPEt
TAAKCRAtmugG7BWS4vJBD/490jQoxrz8z2Rhf61XBPrvQL78caFYICJ8GB7Y13l1
YfBg170VZfBw4Y0GUtItJOjK4rOBoLo56EdkzWAeyelsCVmPQWk7LlRfW/8SJc1+
ut9ELPokyckErYu608yn7H4g+Xjm/KbJnrWdsNCyXeLoqr3YrAp+lkCDLaPCrsT8
NNEY73hPVLF0V58cnUqt2SnjvmXZk5EE/8p3fSH8nMHSt56jnLiZThJwQMz6bK2u
JdfEGgCkaBvcYYXc9Lz4I2xEISqAuX870gsvLuCwmxGU7VtLoO7xQOiexYqBsfJi
KLqyk5iSTxrMew/5FgEtKzbs8IJUOGiJ6Hg2HkJkZSYAoj5OpxWVr+kcc7NLLb82
TujzO4yFoo80JIuKd/vX5wZcxaa51znNV3HaPtfLCN508jr0SkdwpsxZ4IwLnAtd
+JcafaE5Irfc3Mcv/BrvTF8tG//Th4eLQmTjFCLGAhjyKSoxXM64uCD2c9Y03h8D
X4cdlACQC7v8k2pgFo+BaE1Y8SdYnxlUqrOLxdS5dzVdQbvEymYY+wsLqjTcEgaY
8HqjGVDv4a8/V5GK9ozazcLxPB7+FUUFDrP52Na18WivEd0JkrfamFwSlWePcInL
mawe5180Cc+v8xw7V3pt604B+IbRfrMaO4flA78xsiDYmEaiw43a2GIvb71AdKbB
iMLBlAQTAQgAPgIbAwULCQgHAgYVCgkICwIEFgIDAQIeAQIXgBYhBHyeaBUllGiI
YtYq9i2a6AbsFZLiBQJoWJu/BQkPCsIWAAoJEC2a6AbsFZLi9yUQAMzxr8OxlU/4
XfYwzYPoBi+esOC4yfVN6DJDXwbr4dvLp3U2kvyBDg4mQynUsy8QaW2qEytYJuD6
4x9C9ie6bmOzx9VnXywYKFEFD//uz9nZN/t0/ePCK4w9UQnsW3hf2hLqbLE7qrEn
BXeWfrmRiahTkRxGjyTAH4fBWtC+h95cr+2KoLDkEqXSSMFN/5t+FTNMSInCogzS
e/QmS5PtQqQ52XHWeXxoSC0auEjMPG+Z4lZoQUjAJ8Dybvv9gpoe7z245u+gPeHC
PJpNvjWvbUfQAGsz6HbZLvd/9dRDda7outnTK03uxC7SufosXbjtlQouIoXDjt3i
MH+/XCULTtYgdBA9CjWR/hLHKsY65kfiG4rd9x6BT6HqRWQPcFyOkU4eCYUEaBHq
Pr3ZegyOJ6BysKUYLbeu4bk7bO1gLNeV0aRbXNzQE48hZE+CeKOAZe8wy7PmfwhH
jERP6f/f/25DDipujaGPc2wocJXXUFCZRVs5+JT2ZiFZhUPMOxUvd2AxjdB1k/qK
RIDQ+MzRbB2yUkaLJbSgnPq4+1rXFJeDyTQ62ucrEgIhnBLH/z+msrvT2p3SaTaK
7gEL8HFl4vNeXp0Eztj0HdedcrUz4P7pBzRC66HhhAzkaO9N6RPaPzET+OVAMjAp
c9ETKBSqWnJ2L79eq41KfFcCacHbWx90wsGUBBMBCAA+AhsDBQsJCAcCBhUKCQgL
AgQWAgMBAh4BAheAFiEEfJ5oFSWUaIhi1ir2LZroBuwVkuIFAmZ2g6kFCQ0oqgAA
CgkQLZroBuwVkuIhYxAAm8YWBssX4tQjJjgyN/CkEURE1+F9+cx1aYZyyPQD0XHx
v5p32fLWI5gr8p16csBxD+b8RttsFTlWN3IgejjXR546PpXMTzECoUDUs5fhB26L
ng0X6XJi5GEYE6uR7o21bz4okyYB+UEetZ4cg+1cXY9oGwV/3HF6FZPgrff5+EOJ
hRorm+NOx70z9CIXX2A9mnSa8OZf3ybwpKbp737zqNrSGXFRwNGD7Qcvn/1OLMr+
6wbcmv5PkQ7j9mqi37GhcG3EHchHxafpwe6gytqLZsfJ9cWCl8kcelS34V9rPn/J
SrzBQO5V01Ed8NaHHXHpnCIrZWVWd1xRpxJFe2BOjFjN+fcmFPMdGkksQq7kI02c
kcvVJxA/+Sfqv6skkX1erEiga5j5SRxuk7qrVXgAue+D8e1JrMa7WUscSXBTKdhx
2jfq0ZO7zG/D6XrAKuO80Q4tgKc11EJnnu09boMlLLIrbZJSreKIRPJqlLkDLMbj
6eHwYumEdyIu2FjIAtIls9eRcPzcHl8beCtNuDPih1ZO+A85R9gNpzlKOjaZM+0B
ZetFHqVftLJl8cSiyeKJVj6uyq9yzj/cBn535eui8EXUNVXvCpxRmQ0LdSv0GfI5
mF+XwhzpJZCvXovoAlYmx1fKQPQVuVfJKTYJQEbHlr/8BT1Td3nmOPivvj7qKjHC
wZQEEwEIAD4CGwMFCwkIBwIGFQoJCAsCBBYCAwECHgECF4AWIQR8nmgVJZRoiGLW
KvYtmugG7BWS4gUCYrMHDwUJC0Zg5gAKCRAtmugG7BWS4p7cD/wN2Yv/OOMmiOiG
7lqKkIQ0e4amGOkWdlXgAln6BJhD3TCZMnsX4iAOPZbOXxrtWPoO232j3y3aJyPW
IeJepHw8oWkJ4YReVSIaOo7fNhuHpUKDi7qqgv9cdyyz1NF0apQ72hKe64mJmSRu
huyb7xU4oO1nrApJFXGaF5VFOYrrvya2mbCpnts6opIJ3GGl3dwKrfGvjq0BuiQr
qHds8lhQWMSCQ1S3Duvn2qf6rnbW55ZxD6pN5tlryw56rw2E3O0FXMN9IplV3WWY
vKESYSAH3ugHcjJDXPu0Ty32op1ejU+DvyFOzQDu93fSc+6td26ZQ2i/bOkqUF58
QkW31VDO4G/B3bYDZ/47wXIw4orjzsx4jDeX+xgpYtW4Sr6///PT1O4EYOK5oJGS
QTCfhLRcRcoK4SdqaHgDpyUd8KPb/E9AQ7x9NwJr/flo2YN7CnYbVy5IY1sIHnvM
oSmO9GgGimt7SObE+flKG2YlFRBS+XEED4FeGB2qqVonQFLAXfzWuMlIijFP0Km9
xIbgPxOg62wElbH7XGY5tyd0N6x3fhKe1izzaWW/69nnQTbPB3OhgOqgG1UyGUvS
VgJY2fj4CGKX59TW0SCOr70nZequUoDh/r4vNZywOhC08x37y0PKyog4Q2Zvl1HL
y3npTJjc1pcFhNt/2aEFIyxnA/bWAcLBlAQTAQgAPgIbAwULCQgHAgYVCgkICwIE
FgIDAQIeAQIXgBYhBHyeaBUllGiIYtYq9i2a6AbsFZLiBQJe8qUWBQkHhf7tAAoJ
EC2a6AbsFZLicMAQAO20P2Y+QqWtSGknE9vNuWy0iy/k69MaN6aOtMlzpRMeyNR7
V5nf5Cwc3RMZkQ/RaKADWGx4DiP7v9LwJ5h4B/srstLgpUYn0CVkLXES4ggedBRE
1Y65sQO5GS5i8rYdnmwRB9FuBbqrxssAca+ypAbt/Dx6XCkREjnLSoNlmFeJU2oy
Z5oKctWnkZNLqPv6BPvJKrC6f7TYrlSO1SOEN3K7h/I9y09w2QjaTNxdSe9N4A49
lKB2+YXxKUbbsrSlef5p4aiktqa3Z0PaddCDAQIxh+728UQSqf1M3z315V4RZ4sw
GYFYMx8Tc08NOK0rIbBDVcZr5JG3eRW4gKVlVryGIJ2XQBlxF4eZQr0vSLmGCBBB
96g+h8AlRszg/OMqNon8/fbxPmj9HPtBBpFS50891O+jGLgOiPKcHCqODSClqDLC
I1/Mfws5NUVeNGFuaHLzDXOznPisIhlmjd8LoOTYzCBwkSiVsIL7uIS79HuTOJOK
wwDaXRNNgiO5oW95MeitLpV/Mr/F2rc6FjpgQQMedyHmadDcvGaz3PofYYIWdV5c
lH3So0PL3WUYW0JDmSzjHNbU2o0MlGVafj6zDusP/jWxwR5VkZYq6iGbdxCvf05f
VbzGjV56yTrCeIebCvnHpFmLq1W4qL7RSRe7wTd7Pat17cGJx1YRKm9sV0zMwsGU
BBMBCAA+FiEEfJ5oFSWUaIhi1ir2LZroBuwVkuIFAlsvDSkCGwMFCQPCZwAFCwkI
BwIGFQoJCAsCBBYCAwECHgECF4AACgkQLZroBuwVkuLDjg//QymSI5ySUOZPfIYk
/NWi1qcunPPDEtEUAIGV5w2jlF9mXCfiWdW7hkB9wod0KBAC0e0yoSPPlR7o8u4M
J0jFJWUrVax6AIpP+POXfpNPDTfmeWjVqGCupXHddThYurj8vA4BJ9llBxX0FHrA
fxYTpxvFuw0M+B4jKDBTAChBHngPTtm3C1u7pBdTlFcGAaFkBqnRLn1u4YhO1jgH
qGGMxCRwGRp8UN2ySuBmMf0YWq9LWpyGBYV+fErRDVlPWpcOBAlHZkAt/hfm7vNZ
I5w9Ew0D/asD46HaPI2eTECQynADo5OLJoDTGjeW6mzW/H8JgYJC6sGkAe0ohNVp
XHk8agekk3VAQEmsV1wLzGJV3bmpRgxJuMBVFcj0QVI/LklkGWxh4WdDRDBachAJ
EBB7QMj2hmSTsEC6m0J0xFej4Y7zlzrDqcxu4o6JqQTp2PJey3pWV7SkI5PzUXwb
4MXxysOXdUoTog+ark3RdfSVFgMvteQ1Rqo7SIQD+C19YBi1JRaIfByfNbkLp8cx
FrywbRHUKW485puECzalCdoUDAYNHIVFhx+Yquj3brsjx6LJ2rXPzLy2XcFc9hay
9mBm4sXlqGA2NgH1dFBlYxdVuitqKLBCwId4zMb/ZRqz+J09B8DVNTQIMef38uS1
ydJw3sEdASLmWTGZp0t/Ofy422bCwNwEEAEKAAYFAls+SgwACgkQ1PHptkk+2UZc
VAv8DVY0zAWBOcp/FsqSW/MrJzjYpMZ6OZIg9K5jdhrBxA/BQ0zLgAmcBrBiZ155
R4lDMQGjqRB0wJwfJMzW2javcxN7G7syw/2PTSA720QNIHvKikBK8miwe0j20iAy
v2ksuqM/n60MRzfMIQuNo1uJmi77X0DRN/pS/JOg7mUNMvwOFq7QPGHPbxMMz4eR
7UFl8mSVEgp+/I2df1hoxmNmzlARjebOhxkvTkJx0o5rugcPcovNCwz2yZ07+kmK
ATu8SgBWw7BnsdGEOtKizUG3AO3Bb66cnqz1ad3KRM9oRbPP8xgGWQsGSKjCZGJx
w5/IAHu3hhe0nZP513l/FQ5SuHnE5P3X4S9gED57brIXKN3sQwa+kQm3WLZwS+OS
rJNp/UhPS2qX3qo9oIMx79vh0G+ONoAu/DDpvamWTEzQqrIzBNPXotSfIjqCWI4W
4aN0i0njc3lon+JdlQzb7SVJXRIEjS6C5c+vksDDYRge2B0fXJvb5QpS2HZmtH+m
fXw2wsBcBBABAgAGBQJbPlPVAAoJEFBq7r6Avt7NtHIH/App+iwj658ci4fPpLUv
qE78/mcb/hFkXJeRaVj3765a09VU9N1n5bEtcDqfG4aWzjBr4dz+9B0B1yE0gNKq
xVflWPG/3Wy+nmMAHIqYicp+/0lu4VjxiLCPdNlQ1NhdD1ZNB9Mw7FMbdBLI36OE
qV5at++jAbzSPGOoQmBCcnTYMSzPRxedd1qkFwRtwoXcVnftXP9P/65DRETkzBxt
7rYdIWmejptqqobM1li5Zm5ERekZfLnuM/q/46BtOAgiEaCtSF6OUlh0QnymMVdZ
ewpJATXzCCu2psEOUjlu8mWNfBF48AVajRfyrGEliLLiZ8LfSb8+lofBDy/r6xmH
fx7CwNwEEAECAAYFAls+VlQACgkQ1PHptkk+2UbG/AwApk1WQffFO1dWnV4igyig
c/MPD6BnkedrTYOpsM8+C3FrtKdwLbyVSHuv4IOSVwH4KbtSKMHFStAxTb/GDcjL
y0aHsqjk0vzRiLcG2/ijY7FekN35TK296U3FcW5AGwbT0dgR4rk6LGaPiWGYLSVX
TF46fDqKUYBk6dXBgYWLfHRybsejMFvcqMInG40T/zRRTSDOi97pqKJ/Rd15shPj
spv2RQdnMpful8BvVDW1P6IMV665KnnoE2wfPNpuTPkZBIOG6/SjIVB6ARlwQCK+
VXDdeqeXUwtJu2O2odaRNSbnIJpMTHhF0MLz4ye4LbvKJ8Te9Wo76SKySci2ETXO
Jzhhdm7KWzBgM/AETKWX78YDpydIKXajC7lxZTNJe+qUQZaotAAgOeg06dmNo1tz
8vitjIbRIQ3pRWRaO0yd+R1Tlv7W9/YCosRZhub2b3tuF71dxhx+Tt4Z5HVoe5+h
IzirOzFxZW52tGYPFBkETk+kvvqQoT9jNdo2JtRxTPLfwrUEEBMKAB0WIQTjEX0z
767KrLarwDDTESN1IkRFKAUCXCYpIgAKCRDTESN1IkRFKH7oAf40/KbbRYgsAugy
wMBknWZ+1Oo2OB/iny3f/epNZhbiFrjOXx/lHtGiibgLy8mOG8v0vavyN6h6MmOp
OJrsgxawAgCQr/jv5ib9mQ23A1SwwWWckpKeQJJykyqIhvO7C7H4bBu+kvdSJX1i
AKKOw++bTNeACwCJY8NBKT3GW1AmkCw2wsFzBBABCAAdFiEEwveEP5rfn+4mSsuc
wcbAuwAeFyUFAlx4Wg4ACgkQwcbAuwAeFyWNghAAiWlnEcQdd97sUGFOIY0U6BTe
vusoLSRxdbYFJtJtaoqWxgIVHShivZ2Q32mwH1e9DI41T17bm4ygznMaTDgD2F+E
1cxJUtT5YYtoxjMBUzfeCb5WLsYEfOKP/azN+PCprkO5NAEjqzX+PevJcc8YWgMb
GUDx71nID5XzaGymf/oqRLrXnAzWYitDH01SwTov/VgqssSM/dT26pD/WQK4F6H+
4OURTBDx3CMmzCucJ5IYjPr9Pocxc8mINsk3hk62td0wUUBaqmIEvRTjNtGHi9XI
a6DHxlIx2cQt3I9I/yvYIha3UnYyn4JNHWukPFIhrUwVTiOIPuQq1Gm6aO6gloqp
5Rx3d+2jgsfS5HhLv2iHKrnRsaRtL2miYbS7k85xNizpqU4EHvKa+uZxZ6ul93b8
3xGy0qKN1FrpglVF1Dm+SGdK7TkVJWlb3h0sEq0Pzjz2/+r3HmGoQVU+IlVmBr4x
ReWi7cQsRgThZCGGJQHEDCWcB76JX+S5Gk8a0reWl6U4hKIM6m5AEGFbQOsnrOUU
g0mwFwuTjl5wSkmUnimLcVnba7XvWEpmvSULeRoKtQ2CiTIrRFjCxTcr2L/Bak12
6H5G8FzSnfOlHw4sPqAZyddMxRTs0g56HgtYTtZm934VorCkSIInes9ResJXjzii
WzkEjuNCvwb34i1hdWLCwXMEEAEIAB0WIQRD48XWOuiL1R+0GBEpLgWN5njpwQUC
XWgytgAKCRApLgWN5njpwb0bD/41Qe3O6AFMSgA4l6qsJK1dd6xif5NFY56Z3wWr
moDGCuO/btjhxMjiNBy94F7JK/W0kDBCpLASYza4wEyxFpEqvGOGIo5nWLM3STRZ
v54pQIU8g8igWou1JzUbk+T4VIYpQuu8RztqhmSvbj+dBlucEglAIbmuAS1J5JQd
lOhpZ6ywVceSjFU3ABOQug1vaLfeVCLNRZxqDfMlXFJ6aBfao5T17u1Gdlhzllf5
lophOTahNJB3nbkiOjn9NLObpLygJBpLzJPLDAs2E/xgNM2eZToDH+gNZfZnQMZR
B4xOpDeLVtfPdMItOO1seFdrPKFN1padIeMWGvtGHgr1ve7ENZkuO/tT0T9yPo7S
/k2zqr8ClBIQNHNgtqWMglGMAwv3PUdmGqdXZXXM8Eohhpphjo7DpWVT+RdXyOTV
QyhF4xdJvYmI648w/4zbKJXUg57GszevSDEKJkpm94G3FYzz16LwYvYX1MDjS5Jz
s3Wqpy0WuYPgsAZNwpVVVMiT21zzSZQn1C2nAGLJ6/PJ1Jxv4dN49TbXiKPNw9Vr
Yk1ZX/KC0A2DJeeuhb09VbtRa5rKagleMj0ojxnQcbP3z3vm3UJl99ffJrzwH4Yp
XJMV6c1fsRR88UpC27lkAtHwQev7J9/+zbp9hIMpZ+R5afaqMqFvkQ4HxmvJQGsm
FcT3aMJ5BBAWCAAhFiEE7PVFXDqnizxBWkXvASIjTxgzMIUFAl1+74UDBQE8AAoJ
EAEiI08YMzCF65UBAO1rKqGDCiBxIt7yOTL/7mzQvpWvTx2nPFW/R8IhLb9wAP45
ZFqRa18lWzfsF1EfOZ5qxRksTgbMT4cxAFSxj9oDC8LBXAQQAQoABgUCXg5vKAAK
CRDcOw3CDywSKh4VEACqVRPzpcX32pwREKbctO1b0lHlctqeDqV/cZGKpayPYtSo
/mtuK3Q9O734cGGEiBMW/BPOjsT+Ufu3wAqxPKVYXi+bZHEj2ar7zcryp25yML87
4pZnX7++gSD86DeJv46vQbzQ45Bk/uWzi4yP/5UxzGidwbbc4LCJvQR9wOqGZBYg
+8PcNCgD7q3FVngToUYpIXcYTcm0zsd7yqalb2AWMEIyVzfKPdHDvp9MEOKxm7Gy
BxbdxlyZcYSqEQ0hWBfCmzxSNHSqjOcEjJKMhAxqxKDPP2gOpS3g4ChZDO40T+lb
C47HZngBPqLEq8KakORzIbvlj03+aH4MjmWts1Uo50wdAMmwq0SrGwEk+2nNZCnj
2FyeGWxmfcDZT8ux0TSoP2yvl/h6b35aNuN4FRkypYF1zZdoBIjZxO5L7DqTeygq
lqS6vFOyZBFopnYrov7Yyu/2qaFNdtE9K2vqoepTTVao5YG+xZzVD9YdQoQ9npId
srVKZF5BfwupdOL5ZJNFj9jg/4htVgisQL4zUz0aIEY0D1URF4N3YRPBqdqxMhik
luTzx6BF7/ykzFYFHo5q495y6J7oK+mGsVhLBnAPKeeBuVqSywcWWmjH5wySfRPc
qKt/oEXFLEw7wGRwsglCWf096M4fp6OaR1brmbEZXeDGBqEo18GyDbUUGc/wFMJ7
BBAWCAAjFiEEaf9FWoafkDGmkeDxmTkvYrrjByMFAl5Bo9kFgwCv0FAACgkQmTkv
YrrjByP5QwD+KivRmZ4a2c3YvWfofNlfmgHuOE4FTww76T8gNDPabIoBAPq6Fe0k
dFb/WXHl8bSK/wFD0CZy4dyF4fpF9zbMGusPzsFNBFsvDSkBEADYL0eMn3ZZfk5E
V+Zb4FmBZw4+/3nhMInX6PMzu/3WxczcORQtgzN0/VQ19OHhsv8I29Pr+SPOaDm0
ASdMgzNYq//qdKYgQsjAaGHzGcgomGYqV9Bix0MpK5yuo+IKD6q5cQAeqFD/h82+
TCiW7G+y2Hxgeu9MAvvTp8pU4pk1WbNrgTZvhOxwbrRv2AGzxsUxgqyj5ox30dvI
o8n5WsoXpl0OOlpLRg9U7uBNMmUu12TOlEE4HFO5xjRO5EwfKWAHP6EUGk0JLTfA
MQ/AMZa5WeWqeWzV/Pni6/RpuAmY2SEu/+gro1XqytkeQCV877WcC0VT/C1Qihuv
NGy3ovv7j4Qroh2L6NgeAyym01OqI5bV4+EJ+6cIbC4ohQAfj6nhY/E/6bkYmzs1
uwMvSULVjFAtRD8m3lypy0xHTX64N5yICi65WVTuFUqDQiFfjP9Si2BS08mBM5lC
OC/FwtkAMC0IRfNSYNdAjo0BDh59Yana5vfW1VNNCHD7ZG08cOBaHhg+qiZK8t28
UX6rkxDxghk2HEw3sxKEW7pJoHc5OiltL5/4Oq2AVC/Sm63VeeDlfVu8qj4xMiky
jVG0c86XOpoCDxlzmKbG5YYiUGER1WCTB9uuJ3e6AO+3wAJ8p2s8NB6f3vWeeyzZ
htsm41Amge/sZggSQGqytjPydTxGxQARAQABwsF8BBgBCAAmAhsMFiEEfJ5oFSWU
aIhi1ir2LZroBuwVkuIFAmo/A/AFCRDxKkcACgkQLZroBuwVkuKU9w//e7kWd6AC
Oo/pqiB4ycTuxGa6mPnH+9EFzxC4qctc8Eew6aFXJ5Ybwy66JwBrClegxb+XJGRR
8HTzI9BS6qOD/s62gbyHeRZ6dwexzQxbstHX60z7veJ/lAPVcNi4Epx973Nt6c3I
07qpA2U+lc3Wrc9pXVUUqAz5oBTWr9hUX+xrt2j8zYg6Iyko28ypVOg4eLt3PQZ8
05dYt+5StxDuvQNQW11O/7TAhMSuMRwcUvDhkQNtuI32Kxrm7vTJc/W6zBgKtrnB
5Ttyxl7UuM36Ctfgw3pfmV8eiyAYEVp5EiB1r5cCgTtoDHYI1EoAAPcdlZPhZfyy
zUX667QB37WbU/+iKpJs+EsAI6qUcoz6ud4BZnG2M5zQ6zpm7aHQiGDkRo2g7b6y
TI08uTjP5tH8T15tA52TICWElqt8dp6Vz8TwBH0WSobBfuCQHpUtBQFzdbE5/1bR
oX8ruZX8Cd5+mw1g+s8zrtFaX1I4CpzH3xq4MlY/XD9+Ih7Mxo2o46pKzwFdt5/B
eEVJqMXjRt0EJ6kP784tknWWiRaaDkkdaO4lKQlAm+UkYsa97vfpAnFeNJtLtNB2
/OTpz8cX4TZmYN8kwAAoptfzwWfFG9ytYYuSqOonO65RU8Z1kEXvakzNuBjdXXoi
CGm2FKU0d8cP5b+HoC34Ys/bU2MYG8QE6KnCwXwEGAEIACYCGwwWIQR8nmgVJZRo
iGLWKvYtmugG7BWS4gUCaFibfwUJDwrB1gAKCRAtmugG7BWS4nR/D/0QHXFHp2mU
sei+RrGQHgc6rPIz1QGjjQDXqXBymlxGEW4r58w82kR3BknUOES8hubW40C3GiU+
p0JdIe4tEleDbz+aRyN2RJ4ni75ewM5vMsPPasLUFLCVD5CtYfsvOMc3ZNZGdkvA
LzZvRBchHhXdbGLdxVGNXuTI27wFy1CE3eRs77Ef8NnKPz9mBREu/iLNu4Xk4HGu
KxGVs/QlQRN1ALkKZKAwEBoI/lTNfClP+vDhJDPeMQ6f6p5vz56UMb0WSx04f4/F
PF1S1hKiFFGP4Z4mtPeQluW6//+CQGYYba7d14hh+x0Z/fs+IomGhHmYzY6vUG0k
o2/q9IrJGUtp39kCY+GVNCCmEMKpiUYRzNj3Q7WNt61sC1laso6H7WVs0bRBkhCc
e1u0MDi+eKlB4yk5P/1j1clrRs+idYihf5KonHRrFzgMfmMp23v9XRq1mLIHu5kf
A4DNDcWbesVYEHvAO5UdpYn2tQr+iezHhko4mbAKVYy/bpguVAAtgF0fTt2e1Eja
Vm15FzRVrnFb98xIU8wPNhgPOvo+4txYJ37a2Cm6EOcayEuTHXfDMYp+hhXQKU1K
4QRZuHCMjJGOoGHrFgEr7drxFc5l6ygwXfWdeM6JskJA4pmjHzztFl03wvQqlHoZ
Vf9BNAPOyuw3EP+bgXqJUnGz/Jxg3fUZasLBfAQYAQgAJgIbDBYhBHyeaBUllGiI
YtYq9i2a6AbsFZLiBQJmdoSXBQkNKKruAAoJEC2a6AbsFZLiWdEQAKngeKYVq4t1
gxS0xdGFyJ6Kwzcq1sNWyjl6a1Espk8Jc3GIFs3Sylva5GUmnDOUx79h/iRNuVky
SI5ANedQQDR15kIquSu+XnFBlMcsrcs6YvCU6pwzcJtWSWap7mytmkinvhtyg9L2
h+Jas6LHZt+uNtrgUAC5RPb2lU8cojfbeDSdFV48W4pmpV3ICrsLyYAC+0EGtVhi
BuBbcfKFRCNj4kQ0iwDepJ/8cGBLy3DcqXJT9rBondiOtGtHeGiDEF69oLFpKmoy
NKRBzk+P6NzvKAosXC1Xqp+BSwJEsYDEI3gj74pUr5lqcNGjTcX8n7NwZ1CKsrLr
vpdPuf3p4ifbw8jevPuoGNvvqanwwpYcNi95UkPJpLzAiMJBH7YpL0epz+PYGsEs
Lt7HNemsIe1YJbSDQHICYXxT8qyUuZj05OHgUy8fCgmpGo3GR7NgIr8ZqnqrwVaq
P8ZQLnKSxu/Au95nLSnra3+I1GSEaX/RIjUiIFaP84r4Slsiom+Y7ivqUBQEUf/R
LidkAdSSxhYrTEcoWo/eoeGdUf/C3fPQK1VpXK78U+VLAvX+eXq2eB/LUdFIK3GM
HnN5XpYzrwIf3fKcZGZQ5lESB+PmdieUA4s4tP1kSzQiGAuJa5p0qxV2mdQSwUaW
rOC/xYE88RffztPLpjIP6S+itOraRXOewsF8BBgBCAAmAhsMFiEEfJ5oFSWUaIhi
1ir2LZroBuwVkuIFAmKzByEFCQtGYPgACgkQLZroBuwVkuJTRRAAxS2u7QI6PXnh
tZKjaeHNIiSNMaok+Rr7NCrcyU2NGWn5kpD83n4GwRdRgEU4sxwxsqUlJVfXMKb7
266E5eNWqAtQdby6yIjTUb9+IAWVKQxWy0tXocGBmDHpYpOYXXD7UxuMvb//RJ20
PXHrHHnmI/JvutUpljNnhkB9esNq1/djnqNEM0mVDlXqJNzQ6cpziR8tb6MYKxVA
W0dbcL805UZWJrIwH3Mt4FE7JaPd8F2BRb8HXh/neKd3fQf6yrs+4DFZTWMPq8li
JA3CauWp02zdkiv4jcnQ4vKEyngKl64BExxLHAAiv87XUdmrKkzOOdkcssAagdLN
9ieurvQ3WZMmSr15lLw8Giu3ul8MJ8JNTYQs4c0oRSfVXDS/vwh0TMvBk/8qlCWu
hBhSrlNVhtlV/nhXZceG5hv8n2aX0vp7kOJdgj4/qGdd9pGo7edyT7BUemeq8qU6
ELilOvROLLHRjSXbT5UwNEUPtn8Ja2kC4YQFzZZVnTNHz8PmQQhNvPYb2BlCHfoZ
8eosXsZzSlpxHhEqwAnBLzN4WNkKGg3QDAFMQf8Goc1xVMPOpjykFnBseehTuobX
hdb1ns5ik/I54+aXXP7f54JAw/0ZXKlslJe0cR+loYlYTT0IeK9HWrGV9C2nUhOl
tTRYevtlkXFFFKwz80h5wYZKiYsjdmbCwXwEGAEIACYCGwwWIQR8nmgVJZRoiGLW
KvYtmugG7BWS4gUCXvKiRwUJB4X8HgAKCRAtmugG7BWS4oBqD/0Ri99ZIELfizMw
J5ncJmkknOyEXniXv5Ebem6PEttll2CmYJNZnhAz6jKpv6JJM770fS3Eu8jyxqGj
eR3U9uB58GFaXGriwBg6k0nXKYdUHQU68dSjVhvOSbJFkvUptJFkp/JzoTdytA12
N5IUXofjqs6st7YrYOrdxHOgihhwjdoOh8peXAzifNv8cxD8PMJHBLURPC92FXOG
hZMmUXft/Mos3wFzCB/Jzq1s3nF7LBWdJh1q9am4JrXH6OZ54hSJe4xdWnDnStm0
skI6RzNLd1J/M0xzftCbC1Pk3+usd9Aq624EoKaYGWyksARVTHZHd2yxumfn1GlB
M5nblZhFPx0VAa/G36iKfQU3F/2z2bTDNyivbps506drIqwdKEglZgivHMtCX+y+
kYSTu9oF8DBi5oIrbHX3yP7NOC59nsqrREK6X2Xo95zfLE6jtwsjkR+H0r2SHXbY
VSAYIqt/lZUZSLf+f9E+EnD5GJG4REsYHGL69cOt23uGue06Il6Pcyw93OjTYH/1
D2yNThLjk0zRfJCmdQCpNj7PbO2H3tnThpJH/BqweDujess09ffD94i+pdM+bOvs
qyrM9o9c9DlZfepIpAYsKJKuaPFCKmtLQteWa9bbESIkRFgVHa+i+qmItfDP5IXj
lx7BDoAEbRPUVrvSSky9YDX6+oxQIsLBfAQYAQgAJhYhBHyeaBUllGiIYtYq9i2a
6AbsFZLiBQJbLw0pAhsMBQkDwmcAAAoJEC2a6AbsFZLiwogP/0IXlCc3Iqx8mgH4
K401bUY3wlFx33P1+bCsK1mvRJO4/e2Alj3p64zjG9Spt+4j6cvDR9rzJc4Q6uuM
wbKrPMzJoWLIXJcsQhJA34cwMxuwkea994LRFQRG18CVXCuN5uMNB60dOomNJ///
9lcnrJ907UGjPQmKThTX3wYryZUFUmsW0zbwpHKI+mqhkS8IYTHcbKWTXzI60me0
5H0f+7TFXfhfuZdys9tp/cP65iBQ94dxaUjQfuaOXrRF0iZ6wVcZIvjQHQwbq/Fd
EeIf6P7fZ2+i81A8o885wkbHJ6nYC9BAOxjbrYUz0lQhfQrHZYyxIAC94nznj198
hF/It6A7dca/XTuMICN0PspbwstoomwFzL0C11auMO5K2YmjbIhahSWDZV3n3/+q
7SkRQkubmVkRVdr9suyk8jF50uy2XCtqxqlzMw6S1vl3+KC304hQVRoSNpBQYqnK
EcGb3MkPTpwmz0x++oS5u4nNKzGSs4rax6c9jD9Gi1XTN+u3F5+/pIpiZIM7LrFj
RbYa2ufc+E6Qh2dPgvnx77mZBzVxaptttOdWkRzfUdfbaRLOpa1bFtNwTdjhIw4P
0u8LuOGfp8031UGZKwU7kyfvSji2pCsC55Imm1UC8zCx7g5oE0mf1fN4jDFsuii8
O4gJKtqZJeE0zp6d8F4PLrq2cucWzsFNBFsvDbEBEADaOdFJkV2RwDDKB/wGjIb0
e6tWoVvS3lJFkcSMUiXrCZ2+WTXcqzO/LNEn7wgQvdBC13BMpkAxhP0dqZyW/CKI
X3b/XYfCxMrUiOf9rICxaYcWFe+qURoq2b/f0yPozhvrA+SXm/L9NijGPcIMaXyB
ZAej9GZg5wOXrVPCzC3i6idSbh871XzHX2aHFtqnoIOyHoSHrhLFdGTJdpjVQ+t3
hX9OyXIGwvPkvmyAhVVO+c2K1ICcaHLvsLBSK/cOS+grqVzv8m8fXN/nT+/e56q6
FMAF4y6F0PlXPtmroZg5KQOH+A8J+AF4vRb++lZJUvJALR2QL3jLE31HlIcpxp77
4gUWFJrcI0+IEuFn/p2XcrUxXisnQJj75Ftg0d2uZAUD3kemJJ+pw4YFlTlh9X4S
uWxWpkWoEw/t51m2BP2Qpbw09B0t2bhoKXMEBOeQjTCACjOrYUFpwWiy40RRUJZq
nq9onUvRwl4gLuTM6andP9b+SUQJ/Ed6cQigfleWwi6AcwC12dbMBm/wuct8KjsW
y5RlcPs+E29q80lR1DYRooL8NLLT77oiXXAq+3bpE9owzQm0R0I7cAyhdW1+ounQ
SvgUFSkdXo61pWGWeo6EeHo78CWZfzP3Q6Rz+75QG3CGBxcXIzegD0koQAi2EUGL
3zvV+sEBtdLxn1gkRIulDQARAQABwsOyBBgBCAAmAhsCFiEEfJ5oFSWUaIhi1ir2
LZroBuwVkuIFAmo/A44FCRDxKV0CQMF0IAQZAQgAHRYhBMxksdtnq77sqyS2RV/D
RjKXU/SwBQJbLw2xAAoJEF/DRjKXU/SwxVMP/22vseRNCJ75I86sv/oEmvX9wCFT
le/nwiQyy4GY87q6qYxqvmC+9t5tpp+msHsyMrdvanBN5oe+dKR5EOozOkRaLLew
E3VLXB51ecQ6YZgHwJPIPOBXcOYYdue8KZC/1qC2ISBoapHXFpkKRRCaOFMhWekB
PLHXiRmDFwtiEpjJsjXDtitk8lwYS38Q1RlBE0ppzb+278aqI2dnSmkJzSXs31k6
huiqDMFcoYNtgn3tY7xecaqscrQINRVqjaOL7F3puL1otdvSw15EZ44pWpodiDY0
D8p2c9NCPwmeZJpmam8UkmIteIH/OM1ai5g801FCJ0aGMdiUeA3P+YKREEeE6GI/
DPa6LXkZKXx1R5w0yQlqif700CYDYvs3Qnk8DVkHjLCuBzVlKPF1HFMYZWszQf7Z
HggsD+ARhZE8vASk56RfhWVzYwRqNID54aUFUX9BvkHz67gB6DCzPUjL7JjEn+rF
JLbHANW8jW62J9R8X8BeAzkW9bX7cqaloxOmv/4oe1Qh2Qz8NPrYn2P5oJNzJfAA
WWWLYWxu9kEcSiKv8Sol0WPGFdedmZvznDb94lNqlBDmXEDN66tGuG6uX4CL5w1K
kkL76MC6wgnzqYDuJk/ISJzYb3eK9zKiWEYmeR5QGVMm6LpKmTjw1weU2X4feTA1
JP4MgiUcrlHEbufcCRAtmugG7BWS4u/CD/4rcXP0tVB20yNAfF3p/pWZCKl5mDcD
omJQnFO3Ru7Y4LlAGo/a3PFpQ8EsQQZiK8TMtqYA2dlKUmOZQy2TwAIi+powOf+F
EmLWtZ8mgM9DAt5Z1g0imO2NX0+8sX9U4g/dHsKMKtDHFoSP4YWzt1wsIJws7k7m
ZnSEicjCs1rxSRvYl+MylJn+fCkVGFt1rxUlxZit9uMKatoKpCurSD8RgTQzlCqk
c0wDaGP5V8xjdXJrOt2ymxRPDHtT2ur5dJpPsro+w/V5Vn6H1C2C1mEzYmzSOLSo
xs+bZyTwdvjZJi4WiUkoShBcVvVCUC4rbSQzeAaIMjqPsLyTLR2+1ljkKlnlnKKX
GjxpjNvzXGo1QzV1bgf/+1MHEM3N5BI4QRBuF4RG02kBNIAPK9dgDrx6V1rpAPbd
L25ArlEqi8VvZrZvaLQ66+QYRTuYIGeOwWGSxwQsON+Y7YAeY5YF2+IeCUoWYAku
0RH8x4DU3vATKjlJTPCd3HFez+mn9PyqgySs9HTkjfynGZQuIJ7iG27IUPkbBc4+
s5IuJWXT7fvdaHcexp7RWrKLqCpLWZ16xY7F/CE4FevLirZOcd6lbhzSfs0jFmQ5
DVQL4fq8wwnX3+Srr4iHPcPXXG32jx1wNFOgRWXCDZn4opEBeDYs83SpO1uvfGzl
5WT8T68JVui1esLDsgQYAQgAJgIbAhYhBHyeaBUllGiIYtYq9i2a6AbsFZLiBQJo
WJt/BQkPCsFOAkDBdCAEGQEIAB0WIQTMZLHbZ6u+7KsktkVfw0Yyl1P0sAUCWy8N
sQAKCRBfw0Yyl1P0sMVTD/9tr7HkTQie+SPOrL/6BJr1/cAhU5Xv58IkMsuBmPO6
uqmMar5gvvbebaafprB7MjK3b2pwTeaHvnSkeRDqMzpEWiy3sBN1S1wedXnEOmGY
B8CTyDzgV3DmGHbnvCmQv9agtiEgaGqR1xaZCkUQmjhTIVnpATyx14kZgxcLYhKY
ybI1w7YrZPJcGEt/ENUZQRNKac2/tu/GqiNnZ0ppCc0l7N9ZOoboqgzBXKGDbYJ9
7WO8XnGqrHK0CDUVao2ji+xd6bi9aLXb0sNeRGeOKVqaHYg2NA/KdnPTQj8JnmSa
ZmpvFJJiLXiB/zjNWouYPNNRQidGhjHYlHgNz/mCkRBHhOhiPwz2ui15GSl8dUec
NMkJaon+9NAmA2L7N0J5PA1ZB4ywrgc1ZSjxdRxTGGVrM0H+2R4ILA/gEYWRPLwE
pOekX4Vlc2MEajSA+eGlBVF/Qb5B8+u4Aegwsz1Iy+yYxJ/qxSS2xwDVvI1utifU
fF/AXgM5FvW1+3KmpaMTpr/+KHtUIdkM/DT62J9j+aCTcyXwAFlli2FsbvZBHEoi
r/EqJdFjxhXXnZmb85w2/eJTapQQ5lxAzeurRrhurl+Ai+cNSpJC++jAusIJ86mA
7iZPyEic2G93ivcyolhGJnkeUBlTJui6Spk48NcHlNl+H3kwNST+DIIlHK5RxG7n
3AkQLZroBuwVkuKxuRAApKGPaWE1iBkAust2v83G7V439MJCBFvAQHZLBregPMJw
zfmF7HXUpoWg6hHs1igX5XgTlEh7J6Kd0mEjaDveoYlvSz1vEpDTas9gq5yIx0D4
p2xvdlYlckDxHZ+FiMdsbVzmtckwwckFr5lE0uTSTyokAbKUVwiWb+ZMwX7MvIX+
fli1in2TFxfqxAkCjB35xWCsPkLeXbZla6iJ6yxY8dizL1N5aEJaxdFFPKVdak2I
fzNE4LqsUf8xJ8y8Ak17v+DqB83Ip3cA3yhOrrEvxs6gZfUes1K0Ahx+evtt9/Nz
nowH+Yu2hiXPSnfqqkNjoZ/dtBlfBapNt70ZxnHYPm7ChHt4QxPwDle1dEPGbAA1
cGAan7pGbULtvP/DtbsErquyuLPLdEQZs6nY84x/gJiRo8ualuTigX7XZZVFEqdg
DijNhw6PrzvO87ZgXfoClpLPRtDTdc0F5sel50LYxtTxvi8V/zE51dz2vePH07IN
qgT9LGVDTnHKVpviOw3++4lwmSepKISimPm7Z71T+qDcH9I3pr0tVfHpla1FI+Zi
70KqwYyJSQSkP8VNzsHuN/2s4l3Pzy0oFBPdj5j+YYHY9GkYJIjKazlaj2XhJiPd
EX2jR0ZcYnoODJJeCWXu1wJDjKh/4cJArNkt5T7c3inoCvayAC0iuBu+OLGwgg/C
w7IEGAEIACYCGwIWIQR8nmgVJZRoiGLWKvYtmugG7BWS4gUCZnaEmAUJDSiqZgJA
wXQgBBkBCAAdFiEEzGSx22ervuyrJLZFX8NGMpdT9LAFAlsvDbEACgkQX8NGMpdT
9LDFUw//ba+x5E0Invkjzqy/+gSa9f3AIVOV7+fCJDLLgZjzurqpjGq+YL723m2m
n6awezIyt29qcE3mh750pHkQ6jM6RFost7ATdUtcHnV5xDphmAfAk8g84Fdw5hh2
57wpkL/WoLYhIGhqkdcWmQpFEJo4UyFZ6QE8sdeJGYMXC2ISmMmyNcO2K2TyXBhL
fxDVGUETSmnNv7bvxqojZ2dKaQnNJezfWTqG6KoMwVyhg22Cfe1jvF5xqqxytAg1
FWqNo4vsXem4vWi129LDXkRnjilamh2INjQPynZz00I/CZ5kmmZqbxSSYi14gf84
zVqLmDzTUUInRoYx2JR4Dc/5gpEQR4ToYj8M9roteRkpfHVHnDTJCWqJ/vTQJgNi
+zdCeTwNWQeMsK4HNWUo8XUcUxhlazNB/tkeCCwP4BGFkTy8BKTnpF+FZXNjBGo0
gPnhpQVRf0G+QfPruAHoMLM9SMvsmMSf6sUktscA1byNbrYn1HxfwF4DORb1tfty
pqWjE6a//ih7VCHZDPw0+tifY/mgk3Ml8ABZZYthbG72QRxKIq/xKiXRY8YV152Z
m/OcNv3iU2qUEOZcQM3rq0a4bq5fgIvnDUqSQvvowLrCCfOpgO4mT8hInNhvd4r3
MqJYRiZ5HlAZUyboukqZOPDXB5TZfh95MDUk/gyCJRyuUcRu59wJEC2a6AbsFZLi
fQkP/0HWn6sn+FJLer3FtuZEZw/oG1Z0FYFQ84Y7Vtx9x8k0WOUr2t5y3EJb8HOJ
I9eaBlGa8WA0omIHSQL89PHUioDAW6dXhRrADmUsFpNHPaYc961cJFqQjsYVunLR
2qLhRTV85N1u2q0kgPeCjMmodb/r59g+BYE02Ro57wXFMNczgAJX3uld/NMq6fl1
xHZ6bbLaYyEas7O5V50/bGvwI0LNx125N7ZVsfuZu8AWfNW6+Ofkbu0FUphVvDTv
5EKNRrrcFVNn/H3NTtvC2kBxTlf6IYTtgV+oNncKPKIgBOa/omJe5cpL5d8Q4Kpr
SPHZsF7U5SdZQMg5uDv7+WbsQrdR5fC/t8DAYH12Dh11HoA2JLmDDpFzkImEnuFN
T6TEa6fsys8Q4lLHv2ISiX/RkqFBGc7ud4q/BKvQ0ysvRYAq8ArnDLPLNbq45FxF
0jxBN4wTg9yd/exlHbseultSa0tpm07BvlwsxDR0EcTXvvkpYzybMvesBMSKFfoD
Z+NY2jvtuDocIDxExbBfcrW6lRuMu1D0tYpX4yuL8Njflk/WKGUgaLnU9THFcY2n
Z1/p3C41ahkHiOO1mz+6/vLnbXhcYWLPpNLIA42hRE8lWbhfHVslkub8drotfV5V
1NJdC29Jx8/u2B8wkFpl12QgqCsyt2+kj+sRgMrTKMW2XfuJwsOyBBgBCAAmAhsC
FiEEfJ5oFSWUaIhi1ir2LZroBuwVkuIFAmKzBz8FCQtGYI4CQAkQLZroBuwVkuLB
dCAEGQEIAB0WIQTMZLHbZ6u+7KsktkVfw0Yyl1P0sAUCWy8NsQAKCRBfw0Yyl1P0
sMVTD/9tr7HkTQie+SPOrL/6BJr1/cAhU5Xv58IkMsuBmPO6uqmMar5gvvbebaaf
prB7MjK3b2pwTeaHvnSkeRDqMzpEWiy3sBN1S1wedXnEOmGYB8CTyDzgV3DmGHbn
vCmQv9agtiEgaGqR1xaZCkUQmjhTIVnpATyx14kZgxcLYhKYybI1w7YrZPJcGEt/
ENUZQRNKac2/tu/GqiNnZ0ppCc0l7N9ZOoboqgzBXKGDbYJ97WO8XnGqrHK0CDUV
ao2ji+xd6bi9aLXb0sNeRGeOKVqaHYg2NA/KdnPTQj8JnmSaZmpvFJJiLXiB/zjN
WouYPNNRQidGhjHYlHgNz/mCkRBHhOhiPwz2ui15GSl8dUecNMkJaon+9NAmA2L7
N0J5PA1ZB4ywrgc1ZSjxdRxTGGVrM0H+2R4ILA/gEYWRPLwEpOekX4Vlc2MEajSA
+eGlBVF/Qb5B8+u4Aegwsz1Iy+yYxJ/qxSS2xwDVvI1utifUfF/AXgM5FvW1+3Km
paMTpr/+KHtUIdkM/DT62J9j+aCTcyXwAFlli2FsbvZBHEoir/EqJdFjxhXXnZmb
85w2/eJTapQQ5lxAzeurRrhurl+Ai+cNSpJC++jAusIJ86mA7iZPyEic2G93ivcy
olhGJnkeUBlTJui6Spk48NcHlNl+H3kwNST+DIIlHK5RxG7n3PJpEACm7ax2PjrE
dCWtRgXcryMFKdGNz0DzSp/qZY57N1Bn0BpFwJvXSTd8Tm4HtAUxUQJxY5tZohYS
4QT9XoWZxTZyneOVC46QXnxUlMeR+gLHCMUqrbdC0D49c8XqlkXptRxUG8GI7SFh
Oy/eRPxIthDL3AJXYBMO2KqDhgy94ObMGw9DH1s2uyJnLqm/LQV5i+Esd3xuw+uw
okd6y8RYkY1hm3QxaTUWsTtWknVBcRtNcJUDi75UCXyMqSX2tDDFXNlr1vPKmcwi
wgic9R3D18DuHac01oriYJOZ6tcY9Vyk5vGlDzFf5ptge1mWc0wBZkbpKRebFXZ6
J+yreKt6Ac1U3gYWPkt119EyF1DuzHZzwrm9jh9OW8MxgpcuVjRgE/00KtBWoiXi
hmmJdPe0VvanrzRB1nByoeqlUcPBVNh2MS8O9Nq0v3ImX7izdUQBhyZtKzUASI60
xIym2/pADDQPwLB2epfpnS9AlxJ0LCcomStKa33OiaBupsGEDJsTTfZhVac/RNMK
rXETDGKzTLQ2baJ/SmtEPhlKdMLoRSBO+s8PwLrFJJet7dvw7aR0a7d817Hh4lnt
KOOHvsHZm8aNqxnB6puuIPgyoOCkO+tI1gthl57IAlRX3FE0vwPGKuovy99joKox
STvf4FH9JMNBOfKTMG8Q6SG23JzAz3HoXMLDsgQYAQgAJgIbAhYhBHyeaBUllGiI
YtYq9i2a6AbsFZLiBQJe8qJ3BQkHhfvGAkDBdCAEGQEIAB0WIQTMZLHbZ6u+7Ksk
tkVfw0Yyl1P0sAUCWy8NsQAKCRBfw0Yyl1P0sMVTD/9tr7HkTQie+SPOrL/6BJr1
/cAhU5Xv58IkMsuBmPO6uqmMar5gvvbebaafprB7MjK3b2pwTeaHvnSkeRDqMzpE
Wiy3sBN1S1wedXnEOmGYB8CTyDzgV3DmGHbnvCmQv9agtiEgaGqR1xaZCkUQmjhT
IVnpATyx14kZgxcLYhKYybI1w7YrZPJcGEt/ENUZQRNKac2/tu/GqiNnZ0ppCc0l
7N9ZOoboqgzBXKGDbYJ97WO8XnGqrHK0CDUVao2ji+xd6bi9aLXb0sNeRGeOKVqa
HYg2NA/KdnPTQj8JnmSaZmpvFJJiLXiB/zjNWouYPNNRQidGhjHYlHgNz/mCkRBH
hOhiPwz2ui15GSl8dUecNMkJaon+9NAmA2L7N0J5PA1ZB4ywrgc1ZSjxdRxTGGVr
M0H+2R4ILA/gEYWRPLwEpOekX4Vlc2MEajSA+eGlBVF/Qb5B8+u4Aegwsz1Iy+yY
xJ/qxSS2xwDVvI1utifUfF/AXgM5FvW1+3KmpaMTpr/+KHtUIdkM/DT62J9j+aCT
cyXwAFlli2FsbvZBHEoir/EqJdFjxhXXnZmb85w2/eJTapQQ5lxAzeurRrhurl+A
i+cNSpJC++jAusIJ86mA7iZPyEic2G93ivcyolhGJnkeUBlTJui6Spk48NcHlNl+
H3kwNST+DIIlHK5RxG7n3AkQLZroBuwVkuI8LhAAkhidYnGWLKv09OUz9LEjEu2n
mXTrNz/ww6gWlWfhML//T3Mgp/FYoZRXWcMNYysm2UDHtl9atrMReoSnCeza/n0D
zw+e6AR1wJGS0B9JqFARt4o4/pbOEC1kTWSKxh41YQbJdECU/c0ZnbotuMoG8SlK
jCNmNZNVL8XGykXDTiaCIWVMArMjG1RH6Bn5weXrMoQTHTd0Brr7HyHxSCb8RBeN
ZmdfIvy0uSuI/frobxm32x7+yCprNnH0ZLP4czQq80sdaId/KmfHRTmhJSyXxjEi
vrZZoMUIECIPE9rggBaO24iCfUfr7k4oGxpaccPvnrGoEa2BxR4JERUPR2QPc6Qn
T3B7hJF2OPP//VITg6RlgeU7wzX0eLJDxvoE72y0fb7qfpjtcYn1T5TkJNrGuzpo
PrUti1c/PdN/RH2+6Quh+wKawD3PhYn8BXqdhgh4m9SRhXL06N2djg7oz7J79+z+
sPH1Em1rRPA0ZmtXcxbWFd4S2ufG4X679NlJNAOE7p8HexvXS1FQmRC+beN/rJjN
tS+zCS8HfcWchNmwAJ6VfTJRGmaH5DOwR37PerxzqZPXEHcNzuSj0IsXepdEYgqL
FFjmlVIWQqeqbFcHl6hW4TpboaSHskzvZwE/qlfT8JK5RvhNhB720JX/Kp7mp5NT
tkKVCfp07Zd/lD9Pjs/Cw7IEGAEIACYCGwIWIQR8nmgVJZRoiGLWKvYtmugG7BWS
4gUCXRR5WwUJA8afKgJAwXQgBBkBCAAdFiEEzGSx22ervuyrJLZFX8NGMpdT9LAF
AlsvDbEACgkQX8NGMpdT9LDFUw//ba+x5E0Invkjzqy/+gSa9f3AIVOV7+fCJDLL
gZjzurqpjGq+YL723m2mn6awezIyt29qcE3mh750pHkQ6jM6RFost7ATdUtcHnV5
xDphmAfAk8g84Fdw5hh257wpkL/WoLYhIGhqkdcWmQpFEJo4UyFZ6QE8sdeJGYMX
C2ISmMmyNcO2K2TyXBhLfxDVGUETSmnNv7bvxqojZ2dKaQnNJezfWTqG6KoMwVyh
g22Cfe1jvF5xqqxytAg1FWqNo4vsXem4vWi129LDXkRnjilamh2INjQPynZz00I/
CZ5kmmZqbxSSYi14gf84zVqLmDzTUUInRoYx2JR4Dc/5gpEQR4ToYj8M9roteRkp
fHVHnDTJCWqJ/vTQJgNi+zdCeTwNWQeMsK4HNWUo8XUcUxhlazNB/tkeCCwP4BGF
kTy8BKTnpF+FZXNjBGo0gPnhpQVRf0G+QfPruAHoMLM9SMvsmMSf6sUktscA1byN
brYn1HxfwF4DORb1tftypqWjE6a//ih7VCHZDPw0+tifY/mgk3Ml8ABZZYthbG72
QRxKIq/xKiXRY8YV152Zm/OcNv3iU2qUEOZcQM3rq0a4bq5fgIvnDUqSQvvowLrC
CfOpgO4mT8hInNhvd4r3MqJYRiZ5HlAZUyboukqZOPDXB5TZfh95MDUk/gyCJRyu
UcRu59wJEC2a6AbsFZLiqc0QAJNsa5yUKbwrukXnbl0VV9Vdu3/PwmmilZZfc2Lt
GUK8v7ZgXOuNN8+g2fFLZ83SgbG5hKmvEf+dR39D9I0B+mOUKEYNik7oerhmyO2q
rJ2yVNxGN8S66b9lTDi4BZHN1b76Tt9NqbebCvodlu+Hb52PPaXsPLisWHaFrpcp
ff6RfnZCUKDfeD/uyrtV68PqdNFdiXxVj9A96key3IesCD3xL5eXHyl855bh/17G
yhIzpPQvOUVBwFla0Zm3fiNRxYFy9hATzbGwd3itMEyLDQamjT08L9xqQYgpdBW2
seMFHOvivLlaet3dxY9g5WUj62CTpObxq4b/u8mXjE2wx+1QTx0ZHaFjv3FkGGZU
QFC8yS1S6tGjdsdBW1v+YAyQhHR8SJ/d7UleczfbcL3zrWQPMmhmlQupz+LcHhFp
PSOJDenj+nB+e9zI+d7v3L8NfXhGXqBy1PuirK8Fux03pt7oYo5w7T0P26EDR6w7
uk20Rr5b7p6BGuPo8TQ4OTdNtBAXalhXc6C2cUIuJMK23Gr8Uz+MymiIzF+IZILP
QIsHmvwH4QbUB7igBTtq2HfFC7kr6z+RQBgfx449TbpW1RSjQ5kUxSIO4srkFIaH
fI9ctcM4WIhK2l8lT0/H1GZ14gsSzMlIyQu/oQzkw97fZrSgV2vH2yeiYueVTHFI
tfmewsOyBBgBCAAmFiEEfJ5oFSWUaIhi1ir2LZroBuwVkuIFAlsvDbECGwIFCQHh
M4ACQAkQLZroBuwVkuLBdCAEGQEIAB0WIQTMZLHbZ6u+7KsktkVfw0Yyl1P0sAUC
Wy8NsQAKCRBfw0Yyl1P0sMVTD/9tr7HkTQie+SPOrL/6BJr1/cAhU5Xv58IkMsuB
mPO6uqmMar5gvvbebaafprB7MjK3b2pwTeaHvnSkeRDqMzpEWiy3sBN1S1wedXnE
OmGYB8CTyDzgV3DmGHbnvCmQv9agtiEgaGqR1xaZCkUQmjhTIVnpATyx14kZgxcL
YhKYybI1w7YrZPJcGEt/ENUZQRNKac2/tu/GqiNnZ0ppCc0l7N9ZOoboqgzBXKGD
bYJ97WO8XnGqrHK0CDUVao2ji+xd6bi9aLXb0sNeRGeOKVqaHYg2NA/KdnPTQj8J
nmSaZmpvFJJiLXiB/zjNWouYPNNRQidGhjHYlHgNz/mCkRBHhOhiPwz2ui15GSl8
dUecNMkJaon+9NAmA2L7N0J5PA1ZB4ywrgc1ZSjxdRxTGGVrM0H+2R4ILA/gEYWR
PLwEpOekX4Vlc2MEajSA+eGlBVF/Qb5B8+u4Aegwsz1Iy+yYxJ/qxSS2xwDVvI1u
tifUfF/AXgM5FvW1+3KmpaMTpr/+KHtUIdkM/DT62J9j+aCTcyXwAFlli2FsbvZB
HEoir/EqJdFjxhXXnZmb85w2/eJTapQQ5lxAzeurRrhurl+Ai+cNSpJC++jAusIJ
86mA7iZPyEic2G93ivcyolhGJnkeUBlTJui6Spk48NcHlNl+H3kwNST+DIIlHK5R
xG7n3ObXD/9LLcRZs7ZoJmdFdvsN99UE7JMAyXolx3BJrlASmeo7X64TCXA7jx+I
X+3SmhEPobcUelbTbb42xRpJgP+Z+rll55LyK/dKsic2nhiPo1FvmFTehtP/NvOG
euP3LRHs8KlyR6Jb4JLin8afhHjiKq8c28kVjVMfrX1SxLlhz4gQOsLoirXEUWe6
Qyz+pUjDQFUJlxeie/ga/58hzaRU1QbDLPVXbjOQBc2qGL17PuykOYXweoPmqo42
y2HQCcQ+4zcLWBX2IUJNrOTSDMiYeR83Bw8z1XIr4mKmPG4ifF1GFml0yZjwZccx
/po6LtowadMt5GIzxuEIawAG7pREbKwzXpI41vOVz2w3H9Q8a70eo3PXECuQ1hDM
4/uNvwmL2/8Xq7PONE0DahD6QFSNX+zWs3Y80CJwQJH/qJp/wGeyAfgm5tPXci4y
xGkFQEHnpKx/93oBKe4upPmGV6gcNvBNHNxUKQH0izjZUkTPHULN1aBfYomjsMlP
qeD8VKhQYreKXJ51IM4H7EWR6OB2yDxH3aozIo0PjYZ/lLGfb+LP4wuT4eRTm1/7
Svy5d+ZkXzhUPI9b4FjwXEjaFTq6hBv/niVjn+kw+vL/g4v6DZ7qDAqFvXdrc4gd
8A8dtA7klbdai0zV9RaL9coX8nDDhKW2YJweW7V4YlinKRC/oSsStg==
=D2hy
-----END PGP PUBLIC KEY BLOCK-----
